( Made using CamBam - http://www.cambam.co.uk )
( Plate 11/15/2023 6:10:51 PM )
( Post processor: Default )
( T0 : 3.175 )
G21 G90 G64 G40
G0 Z3.0
( T0 : 3.175 )
T0 M6
( Holes )
G17
M3 S1000
G0 X-68.1318 Y-41.6298
G0 Z0.5
G1 F300.0 Z0.0
G2 F800.0 X-67.2586 Y-32.0046 Z-0.1218 I3.8294 J4.5048
G2 X-58.3899 Y-37.125 Z-0.2551 I2.9563 J-5.1204
G2 X-67.2586 Y-42.2454 Z-0.3885 I-5.9125 J0.0
G2 X-68.1318 Y-41.6298 Z-0.4 I2.9563 J5.1204
G2 X-67.2586 Y-32.0046 Z-0.5218 I3.8294 J4.5048
G2 X-58.3899 Y-37.125 Z-0.6551 I2.9563 J-5.1204
G2 X-67.2586 Y-42.2454 Z-0.7885 I-5.9125 J0.0
G2 X-68.1318 Y-41.6298 Z-0.8 I2.9563 J5.1204
G2 X-67.2586 Y-32.0046 Z-0.9218 I3.8294 J4.5048
G2 X-58.3899 Y-37.125 Z-1.0551 I2.9563 J-5.1204
G2 X-67.2586 Y-42.2454 Z-1.1885 I-5.9125 J0.0
G2 X-68.1318 Y-41.6298 Z-1.2 I2.9563 J5.1204
G2 X-67.2586 Y-32.0046 Z-1.3218 I3.8294 J4.5048
G2 X-58.3899 Y-37.125 Z-1.4551 I2.9563 J-5.1204
G2 X-67.2586 Y-42.2454 Z-1.5885 I-5.9125 J0.0
G2 X-68.1318 Y-41.6298 Z-1.6 I2.9563 J5.1204
G2 X-67.2586 Y-32.0046 Z-1.7218 I3.8294 J4.5048
G2 X-58.3899 Y-37.125 Z-1.8551 I2.9563 J-5.1204
G2 X-67.2586 Y-42.2454 Z-1.9885 I-5.9125 J0.0
G2 X-68.1318 Y-41.6298 Z-2.0 I2.9563 J5.1204
G2 X-67.2586 Y-32.0046 Z-2.1218 I3.8294 J4.5048
G2 X-58.3899 Y-37.125 Z-2.2551 I2.9563 J-5.1204
G2 X-67.2586 Y-42.2454 Z-2.3885 I-5.9125 J0.0
G2 X-68.1318 Y-41.6298 Z-2.4 I2.9563 J5.1204
G2 X-67.2586 Y-32.0046 Z-2.5218 I3.8294 J4.5048
G2 X-58.3899 Y-37.125 Z-2.6551 I2.9563 J-5.1204
G2 X-67.2586 Y-42.2454 Z-2.7885 I-5.9125 J0.0
G2 X-68.1318 Y-41.6298 Z-2.8 I2.9563 J5.1204
G2 X-67.2586 Y-32.0046 Z-2.9218 I3.8294 J4.5048
G2 X-58.3899 Y-37.125 Z-3.0551 I2.9563 J-5.1204
G2 X-67.2586 Y-42.2454 Z-3.1885 I-5.9125 J0.0
G2 X-68.1318 Y-41.6298 Z-3.2 I2.9563 J5.1204
G2 X-67.2586 Y-32.0046 Z-3.3218 I3.8294 J4.5048
G2 X-58.3899 Y-37.125 Z-3.4551 I2.9563 J-5.1204
G2 X-67.2586 Y-42.2454 Z-3.5885 I-5.9125 J0.0
G2 X-68.1318 Y-41.6298 Z-3.6 I2.9563 J5.1204
G2 X-67.2586 Y-32.0046 Z-3.7218 I3.8294 J4.5048
G2 X-58.3899 Y-37.125 Z-3.8551 I2.9563 J-5.1204
G2 X-67.2586 Y-42.2454 Z-3.9885 I-5.9125 J0.0
G2 X-68.1318 Y-41.6298 Z-4.0 I2.9563 J5.1204
G2 X-67.2586 Y-32.0046 Z-4.1218 I3.8294 J4.5048
G2 X-58.3899 Y-37.125 Z-4.2551 I2.9563 J-5.1204
G2 X-67.2586 Y-42.2454 Z-4.3885 I-5.9125 J0.0
G2 X-68.1318 Y-41.6298 Z-4.4 I2.9563 J5.1204
G2 X-67.2586 Y-32.0046 Z-4.5218 I3.8294 J4.5048
G2 X-58.3899 Y-37.125 Z-4.6551 I2.9563 J-5.1204
G2 X-67.2586 Y-42.2454 Z-4.7885 I-5.9125 J0.0
G2 X-68.1318 Y-41.6298 Z-4.8 I2.9563 J5.1204
G2 X-67.2586 Y-32.0046 Z-4.9218 I3.8294 J4.5048
G2 X-58.3899 Y-37.125 Z-5.0551 I2.9563 J-5.1204
G2 X-67.2586 Y-42.2454 Z-5.1885 I-5.9125 J0.0
G2 X-68.1318 Y-41.6298 Z-5.2 I2.9563 J5.1204
G2 X-67.2586 Y-32.0046 Z-5.3218 I3.8294 J4.5048
G2 X-58.3899 Y-37.125 Z-5.4551 I2.9563 J-5.1204
G2 X-67.2586 Y-42.2454 Z-5.5885 I-5.9125 J0.0
G2 X-68.1318 Y-41.6298 Z-5.6 I2.9563 J5.1204
G2 X-67.2586 Y-32.0046 Z-5.7218 I3.8294 J4.5048
G2 X-58.3899 Y-37.125 Z-5.8551 I2.9563 J-5.1204
G2 X-67.2586 Y-42.2454 Z-5.9885 I-5.9125 J0.0
G2 X-68.1318 Y-41.6298 Z-6.0 I2.9563 J5.1204
G2 X-67.2586 Y-32.0046 Z-6.1218 I3.8294 J4.5048
G2 X-58.3899 Y-37.125 Z-6.2551 I2.9563 J-5.1204
G2 X-67.2586 Y-42.2454 Z-6.3885 I-5.9125 J0.0
G2 X-68.1318 Y-41.6298 Z-6.4 I2.9563 J5.1204
G2 X-67.2586 Y-32.0046 Z-6.5218 I3.8294 J4.5048
G2 X-58.3899 Y-37.125 Z-6.6551 I2.9563 J-5.1204
G2 X-67.2586 Y-42.2454 Z-6.7885 I-5.9125 J0.0
G2 X-68.1318 Y-41.6298 Z-6.8 I2.9563 J5.1204
G2 X-67.2586 Y-32.0046 Z-6.9218 I3.8294 J4.5048
G2 X-58.3899 Y-37.125 Z-7.0551 I2.9563 J-5.1204
G2 X-67.2586 Y-42.2454 Z-7.1885 I-5.9125 J0.0
G2 X-68.1318 Y-41.6298 Z-7.2 I2.9563 J5.1204
G2 X-67.2586 Y-32.0046 Z-7.3218 I3.8294 J4.5048
G2 X-58.3899 Y-37.125 Z-7.4551 I2.9563 J-5.1204
G2 X-67.2586 Y-42.2454 Z-7.5885 I-5.9125 J0.0
G2 X-68.1318 Y-41.6298 Z-7.6 I2.9563 J5.1204
G2 X-67.2586 Y-32.0046 Z-7.7218 I3.8294 J4.5048
G2 X-58.3899 Y-37.125 Z-7.8551 I2.9563 J-5.1204
G2 X-67.2586 Y-42.2454 Z-7.9885 I-5.9125 J0.0
G2 X-68.1318 Y-41.6298 Z-8.0 I2.9563 J5.1204
G2 X-67.2586 Y-32.0046 Z-8.1218 I3.8294 J4.5048
G2 X-58.3899 Y-37.125 Z-8.2551 I2.9563 J-5.1204
G2 X-67.2586 Y-42.2454 Z-8.3885 I-5.9125 J0.0
G2 X-68.1318 Y-41.6298 Z-8.4 I2.9563 J5.1204
G2 X-67.2586 Y-32.0046 Z-8.5218 I3.8294 J4.5048
G2 X-58.3899 Y-37.125 Z-8.6551 I2.9563 J-5.1204
G2 X-67.2586 Y-42.2454 Z-8.7885 I-5.9125 J0.0
G2 X-68.1318 Y-41.6298 Z-8.8 I2.9563 J5.1204
G2 X-67.2586 Y-32.0046 Z-8.9218 I3.8294 J4.5048
G2 X-58.3899 Y-37.125 Z-9.0551 I2.9563 J-5.1204
G2 X-67.2586 Y-42.2454 Z-9.1885 I-5.9125 J0.0
G2 X-68.1318 Y-41.6298 Z-9.2 I2.9563 J5.1204
G2 X-67.2586 Y-32.0046 Z-9.3218 I3.8294 J4.5048
G2 X-58.3899 Y-37.125 Z-9.4551 I2.9563 J-5.1204
G2 X-67.2586 Y-42.2454 Z-9.5885 I-5.9125 J0.0
G2 X-68.1318 Y-41.6298 Z-9.6 I2.9563 J5.1204
G2 X-67.2586 Y-32.0046 Z-9.7218 I3.8294 J4.5048
G2 X-58.3899 Y-37.125 Z-9.8551 I2.9563 J-5.1204
G2 X-67.2586 Y-42.2454 Z-9.9885 I-5.9125 J0.0
G2 X-68.1318 Y-41.6298 Z-10.0 I2.9563 J5.1204
G2 X-67.2586 Y-32.0046 Z-10.1218 I3.8294 J4.5048
G2 X-58.3899 Y-37.125 Z-10.2551 I2.9563 J-5.1204
G2 X-67.2586 Y-42.2454 Z-10.3885 I-5.9125 J0.0
G2 X-68.1318 Y-41.6298 Z-10.4 I2.9563 J5.1204
G2 X-67.2586 Y-32.0046 Z-10.5218 I3.8294 J4.5048
G2 X-58.3899 Y-37.125 Z-10.6551 I2.9563 J-5.1204
G2 X-67.2586 Y-42.2454 Z-10.7885 I-5.9125 J0.0
G2 X-68.1318 Y-41.6298 Z-10.8 I2.9563 J5.1204
G2 X-67.2586 Y-32.0046 Z-10.9218 I3.8294 J4.5048
G2 X-58.3899 Y-37.125 Z-11.0551 I2.9563 J-5.1204
G2 X-67.2586 Y-42.2454 Z-11.1885 I-5.9125 J0.0
G2 X-68.1318 Y-41.6298 Z-11.2 I2.9563 J5.1204
G2 X-67.2586 Y-32.0046 Z-11.3218 I3.8294 J4.5048
G2 X-58.3899 Y-37.125 Z-11.4551 I2.9563 J-5.1204
G2 X-67.2586 Y-42.2454 Z-11.5885 I-5.9125 J0.0
G2 X-68.1318 Y-41.6298 Z-11.6 I2.9563 J5.1204
G2 X-67.2586 Y-32.0046 Z-11.7218 I3.8294 J4.5048
G2 X-58.3899 Y-37.125 Z-11.8551 I2.9563 J-5.1204
G2 X-67.2586 Y-42.2454 Z-11.9885 I-5.9125 J0.0
G2 X-68.1318 Y-41.6298 Z-12.0 I2.9563 J5.1204
G2 X-67.2586 Y-32.0046 Z-12.1218 I3.8294 J4.5048
G2 X-58.3899 Y-37.125 Z-12.2551 I2.9563 J-5.1204
G2 X-67.2586 Y-42.2454 Z-12.3885 I-5.9125 J0.0
G2 X-68.1318 Y-41.6298 Z-12.4 I2.9563 J5.1204
G2 X-67.2586 Y-32.0046 Z-12.5218 I3.8294 J4.5048
G2 X-58.3899 Y-37.125 Z-12.6551 I2.9563 J-5.1204
G2 X-67.2586 Y-42.2454 Z-12.7885 I-5.9125 J0.0
G2 X-68.1318 Y-41.6298 Z-12.8 I2.9563 J5.1204
G2 X-67.2586 Y-32.0046 Z-12.9218 I3.8294 J4.5048
G2 X-58.3899 Y-37.125 Z-13.0551 I2.9563 J-5.1204
G2 X-67.2586 Y-42.2454 Z-13.1885 I-5.9125 J0.0
G2 X-68.1318 Y-41.6298 Z-13.2 I2.9563 J5.1204
G2 X-67.2586 Y-32.0046 Z-13.3218 I3.8294 J4.5048
G2 X-58.3899 Y-37.125 Z-13.4551 I2.9563 J-5.1204
G2 X-67.2586 Y-42.2454 Z-13.5885 I-5.9125 J0.0
G2 X-68.1318 Y-41.6298 Z-13.6 I2.9563 J5.1204
G2 X-67.2586 Y-32.0046 Z-13.7218 I3.8294 J4.5048
G2 X-58.3899 Y-37.125 Z-13.8551 I2.9563 J-5.1204
G2 X-67.2586 Y-42.2454 Z-13.9885 I-5.9125 J0.0
G2 X-68.1318 Y-41.6298 Z-14.0 I2.9563 J5.1204
G2 X-67.2586 Y-32.0046 Z-14.1218 I3.8294 J4.5048
G2 X-58.3899 Y-37.125 Z-14.2551 I2.9563 J-5.1204
G2 X-67.2586 Y-42.2454 Z-14.3885 I-5.9125 J0.0
G2 X-68.1318 Y-41.6298 Z-14.4 I2.9563 J5.1204
G2 X-67.2586 Y-32.0046 Z-14.5218 I3.8294 J4.5048
G2 X-58.3899 Y-37.125 Z-14.6551 I2.9563 J-5.1204
G2 X-67.2586 Y-42.2454 Z-14.7885 I-5.9125 J0.0
G2 X-68.1318 Y-41.6298 Z-14.8 I2.9563 J5.1204
G2 X-67.2586 Y-32.0046 Z-14.9218 I3.8294 J4.5048
G2 X-58.3899 Y-37.125 Z-15.0551 I2.9563 J-5.1204
G2 X-67.2586 Y-42.2454 Z-15.1885 I-5.9125 J0.0
G2 X-68.1318 Y-41.6298 Z-15.2 I2.9563 J5.1204
G2 X-67.2586 Y-32.0046 Z-15.3218 I3.8294 J4.5048
G2 X-58.3899 Y-37.125 Z-15.4551 I2.9563 J-5.1204
G2 X-67.2586 Y-42.2454 Z-15.5885 I-5.9125 J0.0
G2 X-68.1318 Y-41.6298 Z-15.6 I2.9563 J5.1204
G2 X-67.2586 Y-32.0046 Z-15.7218 I3.8294 J4.5048
G2 X-58.3899 Y-37.125 Z-15.8551 I2.9563 J-5.1204
G2 X-67.2586 Y-42.2454 Z-15.9885 I-5.9125 J0.0
G2 X-68.1318 Y-41.6298 Z-16.0 I2.9563 J5.1204
G2 X-67.2586 Y-32.0046 Z-16.1218 I3.8294 J4.5048
G2 X-58.3899 Y-37.125 Z-16.2551 I2.9563 J-5.1204
G2 X-67.2586 Y-42.2454 Z-16.3885 I-5.9125 J0.0
G2 X-68.1318 Y-41.6298 Z-16.4 I2.9563 J5.1204
G2 X-67.2586 Y-32.0046 Z-16.5218 I3.8294 J4.5048
G2 X-58.3899 Y-37.125 Z-16.6551 I2.9563 J-5.1204
G2 X-67.2586 Y-42.2454 Z-16.7885 I-5.9125 J0.0
G2 X-68.1318 Y-41.6298 Z-16.8 I2.9563 J5.1204
G2 X-67.2586 Y-32.0046 Z-16.9218 I3.8294 J4.5048
G2 X-66.8899 Y-31.8088 Z-16.9263 I2.9562 J-5.1204
G2 X-65.8899 Y-31.4296 Z-16.9378 I2.5875 J-5.3162
G2 X-62.7149 Z-16.9725 I1.5875 J-5.6954
G2 X-61.7149 Y-31.8088 Z-16.984 I-1.5875 J-5.6954
G2 X-58.3899 Y-37.125 Z-17.0551 I-2.5875 J-5.3162
G2 X-61.7149 Y-42.4412 Z-17.1263 I-5.9125 J0.0
G2 X-62.7149 Y-42.8204 Z-17.05 I-2.5875 J5.3162
G2 X-65.8899 I-1.5875 J5.6954
G2 X-66.8899 Y-42.4412 Z-17.184 I1.5875 J5.6954
G2 X-67.2586 Y-42.2454 Z-17.1885 I2.5875 J5.3162
G2 X-68.1318 Y-41.6298 Z-17.2 I2.9563 J5.1204
G2 X-67.2586 Y-32.0046 Z-17.3218 I3.8294 J4.5048
G2 X-66.8899 Y-31.8088 Z-17.3263 I2.9562 J-5.1204
G2 X-65.8899 Y-31.4296 Z-17.05 I2.5875 J-5.3162
G2 X-62.7149 I1.5875 J-5.6954
G2 X-61.7149 Y-31.8088 Z-17.384 I-1.5875 J-5.6954
G2 X-58.3899 Y-37.125 Z-17.4551 I-2.5875 J-5.3162
G2 X-61.7149 Y-42.4412 Z-17.5263 I-5.9125 J0.0
G2 X-62.7149 Y-42.8204 Z-17.05 I-2.5875 J5.3162
G2 X-65.8899 I-1.5875 J5.6954
G2 X-66.8899 Y-42.4412 Z-17.584 I1.5875 J5.6954
G2 X-67.2586 Y-42.2454 Z-17.5885 I2.5875 J5.3162
G2 X-68.1318 Y-41.6298 Z-17.6 I2.9563 J5.1204
G2 X-67.2586 Y-32.0046 Z-17.7218 I3.8294 J4.5048
G2 X-66.8899 Y-31.8088 Z-17.7263 I2.9562 J-5.1204
G2 X-65.8899 Y-31.4296 Z-17.05 I2.5875 J-5.3162
G2 X-62.7149 I1.5875 J-5.6954
G2 X-61.7149 Y-31.8088 Z-17.784 I-1.5875 J-5.6954
G2 X-58.3899 Y-37.125 Z-17.8551 I-2.5875 J-5.3162
G2 X-61.7149 Y-42.4412 Z-17.9263 I-5.9125 J0.0
G2 X-62.7149 Y-42.8204 Z-17.05 I-2.5875 J5.3162
G2 X-65.8899 I-1.5875 J5.6954
G2 X-66.8899 Y-42.4412 Z-17.984 I1.5875 J5.6954
G2 X-67.2586 Y-42.2454 Z-17.9885 I2.5875 J5.3162
G2 X-68.1318 Y-41.6298 Z-18.0 I2.9563 J5.1204
G2 X-67.2586 Y-32.0046 Z-18.1218 I3.8294 J4.5048
G2 X-66.8899 Y-31.8088 Z-18.1263 I2.9562 J-5.1204
G2 X-65.8899 Y-31.4296 Z-17.05 I2.5875 J-5.3162
G2 X-62.7149 I1.5875 J-5.6954
G2 X-61.7149 Y-31.8088 Z-18.184 I-1.5875 J-5.6954
G2 X-58.3899 Y-37.125 Z-18.2551 I-2.5875 J-5.3162
G2 X-61.7149 Y-42.4412 Z-18.3263 I-5.9125 J0.0
G2 X-62.7149 Y-42.8204 Z-17.05 I-2.5875 J5.3162
G2 X-65.8899 I-1.5875 J5.6954
G2 X-66.8899 Y-42.4412 Z-18.384 I1.5875 J5.6954
G2 X-67.2586 Y-42.2454 Z-18.3885 I2.5875 J5.3162
G2 X-68.1318 Y-41.6298 Z-18.4 I2.9563 J5.1204
G2 X-67.2586 Y-32.0046 Z-18.5218 I3.8294 J4.5048
G2 X-66.8899 Y-31.8088 Z-18.5263 I2.9562 J-5.1204
G2 X-65.8899 Y-31.4296 Z-17.05 I2.5875 J-5.3162
G2 X-62.7149 I1.5875 J-5.6954
G2 X-61.7149 Y-31.8088 Z-18.584 I-1.5875 J-5.6954
G2 X-58.3899 Y-37.125 Z-18.6551 I-2.5875 J-5.3162
G2 X-61.7149 Y-42.4412 Z-18.7263 I-5.9125 J0.0
G2 X-62.7149 Y-42.8204 Z-17.05 I-2.5875 J5.3162
G2 X-65.8899 I-1.5875 J5.6954
G2 X-66.8899 Y-42.4412 Z-18.784 I1.5875 J5.6954
G2 X-67.2586 Y-42.2454 Z-18.7885 I2.5875 J5.3162
G2 X-68.1318 Y-41.6298 Z-18.8 I2.9563 J5.1204
G2 X-67.2586 Y-32.0046 Z-18.8761 I3.8294 J4.5048
G2 X-66.8899 Y-31.8088 Z-18.8789 I2.9562 J-5.1204
G2 X-65.8899 Y-31.4296 Z-17.05 I2.5875 J-5.3162
G2 X-62.7149 I1.5875 J-5.6954
G2 X-61.7149 Y-31.8088 Z-18.915 I-1.5875 J-5.6954
G2 X-58.3899 Y-37.125 Z-18.9595 I-2.5875 J-5.3162
G2 X-61.7149 Y-42.4412 Z-19.0039 I-5.9125 J0.0
G2 X-62.7149 Y-42.8204 Z-17.05 I-2.5875 J5.3162
G2 X-65.8899 I-1.5875 J5.6954
G2 X-66.8899 Y-42.4412 Z-19.04 I1.5875 J5.6954
G2 X-67.2586 Y-42.2454 Z-19.0428 I2.5875 J5.3162
G2 X-68.1318 Y-41.6298 Z-19.05 I2.9563 J5.1204
G2 X-67.2586 Y-32.0046 I3.8294 J4.5048
G2 X-66.8899 Y-31.8088 I2.9562 J-5.1204
G2 X-65.8899 Y-31.4296 Z-17.05 I2.5875 J-5.3162
G2 X-62.7149 I1.5875 J-5.6954
G2 X-61.7149 Y-31.8088 Z-19.05 I-1.5875 J-5.6954
G2 X-58.3899 Y-37.125 I-2.5875 J-5.3162
G2 X-61.7149 Y-42.4412 I-5.9125 J0.0
G2 X-62.7149 Y-42.8204 Z-17.05 I-2.5875 J5.3162
G2 X-65.8899 I-1.5875 J5.6954
G2 X-66.8899 Y-42.4412 Z-19.05 I1.5875 J5.6954
G2 X-67.2586 Y-42.2454 I2.5875 J5.3162
G2 X-68.1318 Y-41.6298 I2.9563 J5.1204
G0 Z3.0
G0 X58.3933 Y-37.326
G0 Z0.5
G1 F300.0 Z0.0
G2 F800.0 X61.3461 Y-32.0046 Z-0.0688 I5.9091 J0.201
G2 X70.2149 Y-37.125 Z-0.2022 I2.9563 J-5.1204
G2 X61.3461 Y-42.2454 Z-0.3355 I-5.9125 J0.0
G2 X58.3933 Y-37.326 Z-0.4 I2.9563 J5.1204
G2 X61.3461 Y-32.0046 Z-0.4688 I5.9091 J0.201
G2 X70.2149 Y-37.125 Z-0.6022 I2.9563 J-5.1204
G2 X61.3461 Y-42.2454 Z-0.7355 I-5.9125 J0.0
G2 X58.3933 Y-37.326 Z-0.8 I2.9563 J5.1204
G2 X61.3461 Y-32.0046 Z-0.8688 I5.9091 J0.201
G2 X70.2149 Y-37.125 Z-1.0022 I2.9563 J-5.1204
G2 X61.3461 Y-42.2454 Z-1.1355 I-5.9125 J0.0
G2 X58.3933 Y-37.326 Z-1.2 I2.9563 J5.1204
G2 X61.3461 Y-32.0046 Z-1.2688 I5.9091 J0.201
G2 X70.2149 Y-37.125 Z-1.4022 I2.9563 J-5.1204
G2 X61.3461 Y-42.2454 Z-1.5355 I-5.9125 J0.0
G2 X58.3933 Y-37.326 Z-1.6 I2.9563 J5.1204
G2 X61.3461 Y-32.0046 Z-1.6688 I5.9091 J0.201
G2 X70.2149 Y-37.125 Z-1.8022 I2.9563 J-5.1204
G2 X61.3461 Y-42.2454 Z-1.9355 I-5.9125 J0.0
G2 X58.3933 Y-37.326 Z-2.0 I2.9563 J5.1204
G2 X61.3461 Y-32.0046 Z-2.0688 I5.9091 J0.201
G2 X70.2149 Y-37.125 Z-2.2022 I2.9563 J-5.1204
G2 X61.3461 Y-42.2454 Z-2.3355 I-5.9125 J0.0
G2 X58.3933 Y-37.326 Z-2.4 I2.9563 J5.1204
G2 X61.3461 Y-32.0046 Z-2.4688 I5.9091 J0.201
G2 X70.2149 Y-37.125 Z-2.6022 I2.9563 J-5.1204
G2 X61.3461 Y-42.2454 Z-2.7355 I-5.9125 J0.0
G2 X58.3933 Y-37.326 Z-2.8 I2.9563 J5.1204
G2 X61.3461 Y-32.0046 Z-2.8688 I5.9091 J0.201
G2 X70.2149 Y-37.125 Z-3.0022 I2.9563 J-5.1204
G2 X61.3461 Y-42.2454 Z-3.1355 I-5.9125 J0.0
G2 X58.3933 Y-37.326 Z-3.2 I2.9563 J5.1204
G2 X61.3461 Y-32.0046 Z-3.2688 I5.9091 J0.201
G2 X70.2149 Y-37.125 Z-3.4022 I2.9563 J-5.1204
G2 X61.3461 Y-42.2454 Z-3.5355 I-5.9125 J0.0
G2 X58.3933 Y-37.326 Z-3.6 I2.9563 J5.1204
G2 X61.3461 Y-32.0046 Z-3.6688 I5.9091 J0.201
G2 X70.2149 Y-37.125 Z-3.8022 I2.9563 J-5.1204
G2 X61.3461 Y-42.2454 Z-3.9355 I-5.9125 J0.0
G2 X58.3933 Y-37.326 Z-4.0 I2.9563 J5.1204
G2 X61.3461 Y-32.0046 Z-4.0688 I5.9091 J0.201
G2 X70.2149 Y-37.125 Z-4.2022 I2.9563 J-5.1204
G2 X61.3461 Y-42.2454 Z-4.3355 I-5.9125 J0.0
G2 X58.3933 Y-37.326 Z-4.4 I2.9563 J5.1204
G2 X61.3461 Y-32.0046 Z-4.4688 I5.9091 J0.201
G2 X70.2149 Y-37.125 Z-4.6022 I2.9563 J-5.1204
G2 X61.3461 Y-42.2454 Z-4.7355 I-5.9125 J0.0
G2 X58.3933 Y-37.326 Z-4.8 I2.9563 J5.1204
G2 X61.3461 Y-32.0046 Z-4.8688 I5.9091 J0.201
G2 X70.2149 Y-37.125 Z-5.0022 I2.9563 J-5.1204
G2 X61.3461 Y-42.2454 Z-5.1355 I-5.9125 J0.0
G2 X58.3933 Y-37.326 Z-5.2 I2.9563 J5.1204
G2 X61.3461 Y-32.0046 Z-5.2688 I5.9091 J0.201
G2 X70.2149 Y-37.125 Z-5.4022 I2.9563 J-5.1204
G2 X61.3461 Y-42.2454 Z-5.5355 I-5.9125 J0.0
G2 X58.3933 Y-37.326 Z-5.6 I2.9563 J5.1204
G2 X61.3461 Y-32.0046 Z-5.6688 I5.9091 J0.201
G2 X70.2149 Y-37.125 Z-5.8022 I2.9563 J-5.1204
G2 X61.3461 Y-42.2454 Z-5.9355 I-5.9125 J0.0
G2 X58.3933 Y-37.326 Z-6.0 I2.9563 J5.1204
G2 X61.3461 Y-32.0046 Z-6.0688 I5.9091 J0.201
G2 X70.2149 Y-37.125 Z-6.2022 I2.9563 J-5.1204
G2 X61.3461 Y-42.2454 Z-6.3355 I-5.9125 J0.0
G2 X58.3933 Y-37.326 Z-6.4 I2.9563 J5.1204
G2 X61.3461 Y-32.0046 Z-6.4688 I5.9091 J0.201
G2 X70.2149 Y-37.125 Z-6.6022 I2.9563 J-5.1204
G2 X61.3461 Y-42.2454 Z-6.7355 I-5.9125 J0.0
G2 X58.3933 Y-37.326 Z-6.8 I2.9563 J5.1204
G2 X61.3461 Y-32.0046 Z-6.8688 I5.9091 J0.201
G2 X70.2149 Y-37.125 Z-7.0022 I2.9563 J-5.1204
G2 X61.3461 Y-42.2454 Z-7.1355 I-5.9125 J0.0
G2 X58.3933 Y-37.326 Z-7.2 I2.9563 J5.1204
G2 X61.3461 Y-32.0046 Z-7.2688 I5.9091 J0.201
G2 X70.2149 Y-37.125 Z-7.4022 I2.9563 J-5.1204
G2 X61.3461 Y-42.2454 Z-7.5355 I-5.9125 J0.0
G2 X58.3933 Y-37.326 Z-7.6 I2.9563 J5.1204
G2 X61.3461 Y-32.0046 Z-7.6688 I5.9091 J0.201
G2 X70.2149 Y-37.125 Z-7.8022 I2.9563 J-5.1204
G2 X61.3461 Y-42.2454 Z-7.9355 I-5.9125 J0.0
G2 X58.3933 Y-37.326 Z-8.0 I2.9563 J5.1204
G2 X61.3461 Y-32.0046 Z-8.0688 I5.9091 J0.201
G2 X70.2149 Y-37.125 Z-8.2022 I2.9563 J-5.1204
G2 X61.3461 Y-42.2454 Z-8.3355 I-5.9125 J0.0
G2 X58.3933 Y-37.326 Z-8.4 I2.9563 J5.1204
G2 X61.3461 Y-32.0046 Z-8.4688 I5.9091 J0.201
G2 X70.2149 Y-37.125 Z-8.6022 I2.9563 J-5.1204
G2 X61.3461 Y-42.2454 Z-8.7355 I-5.9125 J0.0
G2 X58.3933 Y-37.326 Z-8.8 I2.9563 J5.1204
G2 X61.3461 Y-32.0046 Z-8.8688 I5.9091 J0.201
G2 X70.2149 Y-37.125 Z-9.0022 I2.9563 J-5.1204
G2 X61.3461 Y-42.2454 Z-9.1355 I-5.9125 J0.0
G2 X58.3933 Y-37.326 Z-9.2 I2.9563 J5.1204
G2 X61.3461 Y-32.0046 Z-9.2688 I5.9091 J0.201
G2 X70.2149 Y-37.125 Z-9.4022 I2.9563 J-5.1204
G2 X61.3461 Y-42.2454 Z-9.5355 I-5.9125 J0.0
G2 X58.3933 Y-37.326 Z-9.6 I2.9563 J5.1204
G2 X61.3461 Y-32.0046 Z-9.6688 I5.9091 J0.201
G2 X70.2149 Y-37.125 Z-9.8022 I2.9563 J-5.1204
G2 X61.3461 Y-42.2454 Z-9.9355 I-5.9125 J0.0
G2 X58.3933 Y-37.326 Z-10.0 I2.9563 J5.1204
G2 X61.3461 Y-32.0046 Z-10.0688 I5.9091 J0.201
G2 X70.2149 Y-37.125 Z-10.2022 I2.9563 J-5.1204
G2 X61.3461 Y-42.2454 Z-10.3355 I-5.9125 J0.0
G2 X58.3933 Y-37.326 Z-10.4 I2.9563 J5.1204
G2 X61.3461 Y-32.0046 Z-10.4688 I5.9091 J0.201
G2 X70.2149 Y-37.125 Z-10.6022 I2.9563 J-5.1204
G2 X61.3461 Y-42.2454 Z-10.7355 I-5.9125 J0.0
G2 X58.3933 Y-37.326 Z-10.8 I2.9563 J5.1204
G2 X61.3461 Y-32.0046 Z-10.8688 I5.9091 J0.201
G2 X70.2149 Y-37.125 Z-11.0022 I2.9563 J-5.1204
G2 X61.3461 Y-42.2454 Z-11.1355 I-5.9125 J0.0
G2 X58.3933 Y-37.326 Z-11.2 I2.9563 J5.1204
G2 X61.3461 Y-32.0046 Z-11.2688 I5.9091 J0.201
G2 X70.2149 Y-37.125 Z-11.4022 I2.9563 J-5.1204
G2 X61.3461 Y-42.2454 Z-11.5355 I-5.9125 J0.0
G2 X58.3933 Y-37.326 Z-11.6 I2.9563 J5.1204
G2 X61.3461 Y-32.0046 Z-11.6688 I5.9091 J0.201
G2 X70.2149 Y-37.125 Z-11.8022 I2.9563 J-5.1204
G2 X61.3461 Y-42.2454 Z-11.9355 I-5.9125 J0.0
G2 X58.3933 Y-37.326 Z-12.0 I2.9563 J5.1204
G2 X61.3461 Y-32.0046 Z-12.0688 I5.9091 J0.201
G2 X70.2149 Y-37.125 Z-12.2022 I2.9563 J-5.1204
G2 X61.3461 Y-42.2454 Z-12.3355 I-5.9125 J0.0
G2 X58.3933 Y-37.326 Z-12.4 I2.9563 J5.1204
G2 X61.3461 Y-32.0046 Z-12.4688 I5.9091 J0.201
G2 X70.2149 Y-37.125 Z-12.6022 I2.9563 J-5.1204
G2 X61.3461 Y-42.2454 Z-12.7355 I-5.9125 J0.0
G2 X58.3933 Y-37.326 Z-12.8 I2.9563 J5.1204
G2 X61.3461 Y-32.0046 Z-12.8688 I5.9091 J0.201
G2 X70.2149 Y-37.125 Z-13.0022 I2.9563 J-5.1204
G2 X61.3461 Y-42.2454 Z-13.1355 I-5.9125 J0.0
G2 X58.3933 Y-37.326 Z-13.2 I2.9563 J5.1204
G2 X61.3461 Y-32.0046 Z-13.2688 I5.9091 J0.201
G2 X70.2149 Y-37.125 Z-13.4022 I2.9563 J-5.1204
G2 X61.3461 Y-42.2454 Z-13.5355 I-5.9125 J0.0
G2 X58.3933 Y-37.326 Z-13.6 I2.9563 J5.1204
G2 X61.3461 Y-32.0046 Z-13.6688 I5.9091 J0.201
G2 X70.2149 Y-37.125 Z-13.8022 I2.9563 J-5.1204
G2 X61.3461 Y-42.2454 Z-13.9355 I-5.9125 J0.0
G2 X58.3933 Y-37.326 Z-14.0 I2.9563 J5.1204
G2 X61.3461 Y-32.0046 Z-14.0688 I5.9091 J0.201
G2 X70.2149 Y-37.125 Z-14.2022 I2.9563 J-5.1204
G2 X61.3461 Y-42.2454 Z-14.3355 I-5.9125 J0.0
G2 X58.3933 Y-37.326 Z-14.4 I2.9563 J5.1204
G2 X61.3461 Y-32.0046 Z-14.4688 I5.9091 J0.201
G2 X70.2149 Y-37.125 Z-14.6022 I2.9563 J-5.1204
G2 X61.3461 Y-42.2454 Z-14.7355 I-5.9125 J0.0
G2 X58.3933 Y-37.326 Z-14.8 I2.9563 J5.1204
G2 X61.3461 Y-32.0046 Z-14.8688 I5.9091 J0.201
G2 X70.2149 Y-37.125 Z-15.0022 I2.9563 J-5.1204
G2 X61.3461 Y-42.2454 Z-15.1355 I-5.9125 J0.0
G2 X58.3933 Y-37.326 Z-15.2 I2.9563 J5.1204
G2 X61.3461 Y-32.0046 Z-15.2688 I5.9091 J0.201
G2 X70.2149 Y-37.125 Z-15.4022 I2.9563 J-5.1204
G2 X61.3461 Y-42.2454 Z-15.5355 I-5.9125 J0.0
G2 X58.3933 Y-37.326 Z-15.6 I2.9563 J5.1204
G2 X61.3461 Y-32.0046 Z-15.6688 I5.9091 J0.201
G2 X70.2149 Y-37.125 Z-15.8022 I2.9563 J-5.1204
G2 X61.3461 Y-42.2454 Z-15.9355 I-5.9125 J0.0
G2 X58.3933 Y-37.326 Z-16.0 I2.9563 J5.1204
G2 X61.3461 Y-32.0046 Z-16.0688 I5.9091 J0.201
G2 X70.2149 Y-37.125 Z-16.2022 I2.9563 J-5.1204
G2 X61.3461 Y-42.2454 Z-16.3355 I-5.9125 J0.0
G2 X58.3933 Y-37.326 Z-16.4 I2.9563 J5.1204
G2 X61.3461 Y-32.0046 Z-16.4688 I5.9091 J0.201
G2 X70.2149 Y-37.125 Z-16.6022 I2.9563 J-5.1204
G2 X61.3461 Y-42.2454 Z-16.7355 I-5.9125 J0.0
G2 X58.3933 Y-37.326 Z-16.8 I2.9563 J5.1204
G2 X61.3461 Y-32.0046 Z-16.8688 I5.9091 J0.201
G2 X61.7149 Y-31.8088 Z-16.8733 I2.9563 J-5.1204
G2 X62.7149 Y-31.4296 Z-16.8849 I2.5875 J-5.3162
G2 X65.8899 Z-16.9195 I1.5875 J-5.6954
G2 X66.8899 Y-31.8088 Z-16.931 I-1.5875 J-5.6954
G2 X70.2149 Y-37.125 Z-17.0022 I-2.5875 J-5.3162
G2 X66.8899 Y-42.4412 Z-17.0733 I-5.9125 J0.0
G2 X65.8899 Y-42.8204 Z-17.05 I-2.5875 J5.3162
G2 X62.7149 I-1.5875 J5.6954
G2 X61.7149 Y-42.4412 Z-17.131 I1.5875 J5.6954
G2 X61.3461 Y-42.2454 Z-17.1355 I2.5875 J5.3162
G2 X58.3933 Y-37.326 Z-17.2 I2.9563 J5.1204
G2 X61.3461 Y-32.0046 Z-17.2688 I5.9091 J0.201
G2 X61.7149 Y-31.8088 Z-17.2733 I2.9563 J-5.1204
G2 X62.7149 Y-31.4296 Z-17.05 I2.5875 J-5.3162
G2 X65.8899 I1.5875 J-5.6954
G2 X66.8899 Y-31.8088 Z-17.331 I-1.5875 J-5.6954
G2 X70.2149 Y-37.125 Z-17.4022 I-2.5875 J-5.3162
G2 X66.8899 Y-42.4412 Z-17.4733 I-5.9125 J0.0
G2 X65.8899 Y-42.8204 Z-17.05 I-2.5875 J5.3162
G2 X62.7149 I-1.5875 J5.6954
G2 X61.7149 Y-42.4412 Z-17.531 I1.5875 J5.6954
G2 X61.3461 Y-42.2454 Z-17.5355 I2.5875 J5.3162
G2 X58.3933 Y-37.326 Z-17.6 I2.9563 J5.1204
G2 X61.3461 Y-32.0046 Z-17.6688 I5.9091 J0.201
G2 X61.7149 Y-31.8088 Z-17.6733 I2.9563 J-5.1204
G2 X62.7149 Y-31.4296 Z-17.05 I2.5875 J-5.3162
G2 X65.8899 I1.5875 J-5.6954
G2 X66.8899 Y-31.8088 Z-17.731 I-1.5875 J-5.6954
G2 X70.2149 Y-37.125 Z-17.8022 I-2.5875 J-5.3162
G2 X66.8899 Y-42.4412 Z-17.8733 I-5.9125 J0.0
G2 X65.8899 Y-42.8204 Z-17.05 I-2.5875 J5.3162
G2 X62.7149 I-1.5875 J5.6954
G2 X61.7149 Y-42.4412 Z-17.931 I1.5875 J5.6954
G2 X61.3461 Y-42.2454 Z-17.9355 I2.5875 J5.3162
G2 X58.3933 Y-37.326 Z-18.0 I2.9563 J5.1204
G2 X61.3461 Y-32.0046 Z-18.0688 I5.9091 J0.201
G2 X61.7149 Y-31.8088 Z-18.0733 I2.9563 J-5.1204
G2 X62.7149 Y-31.4296 Z-17.05 I2.5875 J-5.3162
G2 X65.8899 I1.5875 J-5.6954
G2 X66.8899 Y-31.8088 Z-18.131 I-1.5875 J-5.6954
G2 X70.2149 Y-37.125 Z-18.2022 I-2.5875 J-5.3162
G2 X66.8899 Y-42.4412 Z-18.2733 I-5.9125 J0.0
G2 X65.8899 Y-42.8204 Z-17.05 I-2.5875 J5.3162
G2 X62.7149 I-1.5875 J5.6954
G2 X61.7149 Y-42.4412 Z-18.331 I1.5875 J5.6954
G2 X61.3461 Y-42.2454 Z-18.3355 I2.5875 J5.3162
G2 X58.3933 Y-37.326 Z-18.4 I2.9563 J5.1204
G2 X61.3461 Y-32.0046 Z-18.4688 I5.9091 J0.201
G2 X61.7149 Y-31.8088 Z-18.4733 I2.9563 J-5.1204
G2 X62.7149 Y-31.4296 Z-17.05 I2.5875 J-5.3162
G2 X65.8899 I1.5875 J-5.6954
G2 X66.8899 Y-31.8088 Z-18.531 I-1.5875 J-5.6954
G2 X70.2149 Y-37.125 Z-18.6022 I-2.5875 J-5.3162
G2 X66.8899 Y-42.4412 Z-18.6733 I-5.9125 J0.0
G2 X65.8899 Y-42.8204 Z-17.05 I-2.5875 J5.3162
G2 X62.7149 I-1.5875 J5.6954
G2 X61.7149 Y-42.4412 Z-18.731 I1.5875 J5.6954
G2 X61.3461 Y-42.2454 Z-18.7355 I2.5875 J5.3162
G2 X58.3933 Y-37.326 Z-18.8 I2.9563 J5.1204
G2 X61.3461 Y-32.0046 Z-18.843 I5.9091 J0.201
G2 X61.7149 Y-31.8088 Z-18.8458 I2.9563 J-5.1204
G2 X62.7149 Y-31.4296 Z-17.05 I2.5875 J-5.3162
G2 X65.8899 I1.5875 J-5.6954
G2 X66.8899 Y-31.8088 Z-18.8819 I-1.5875 J-5.6954
G2 X70.2149 Y-37.125 Z-18.9264 I-2.5875 J-5.3162
G2 X66.8899 Y-42.4412 Z-18.9708 I-5.9125 J0.0
G2 X65.8899 Y-42.8204 Z-17.05 I-2.5875 J5.3162
G2 X62.7149 I-1.5875 J5.6954
G2 X61.7149 Y-42.4412 Z-19.0069 I1.5875 J5.6954
G2 X61.3461 Y-42.2454 Z-19.0097 I2.5875 J5.3162
G2 X58.3933 Y-37.326 Z-19.05 I2.9563 J5.1204
G2 X61.3461 Y-32.0046 I5.9091 J0.201
G2 X61.7149 Y-31.8088 I2.9563 J-5.1204
G2 X62.7149 Y-31.4296 Z-17.05 I2.5875 J-5.3162
G2 X65.8899 I1.5875 J-5.6954
G2 X66.8899 Y-31.8088 Z-19.05 I-1.5875 J-5.6954
G2 X70.2149 Y-37.125 I-2.5875 J-5.3162
G2 X66.8899 Y-42.4412 I-5.9125 J0.0
G2 X65.8899 Y-42.8204 Z-17.05 I-2.5875 J5.3162
G2 X62.7149 I-1.5875 J5.6954
G2 X61.7149 Y-42.4412 Z-19.05 I1.5875 J5.6954
G2 X61.3461 Y-42.2454 I2.5875 J5.3162
G2 X58.3933 Y-37.326 I2.9563 J5.1204
G0 Z3.0
G0 X67.0956 Y35.5827
G0 Z0.5
G1 F300.0 Z0.0
G2 F800.0 X65.7937 Y36.0158 Z-0.0258 I0.4044 J3.3884
G2 Y41.9265 Z-0.1591 I1.7063 J2.9553
G2 X70.9125 Y38.9711 Z-0.2924 I1.7063 J-2.9553
G2 X67.0956 Y35.5827 Z-0.4 I-3.4125 J0.0
G2 X65.7937 Y36.0158 Z-0.4258 I0.4044 J3.3884
G2 Y41.9265 Z-0.5591 I1.7063 J2.9553
G2 X70.9125 Y38.9711 Z-0.6924 I1.7063 J-2.9553
G2 X67.0956 Y35.5827 Z-0.8 I-3.4125 J0.0
G2 X65.7937 Y36.0158 Z-0.8258 I0.4044 J3.3884
G2 Y41.9265 Z-0.9591 I1.7063 J2.9553
G2 X70.9125 Y38.9711 Z-1.0924 I1.7063 J-2.9553
G2 X67.0956 Y35.5827 Z-1.2 I-3.4125 J0.0
G2 X65.7937 Y36.0158 Z-1.2258 I0.4044 J3.3884
G2 Y41.9265 Z-1.3591 I1.7063 J2.9553
G2 X70.9125 Y38.9711 Z-1.4924 I1.7063 J-2.9553
G2 X67.0956 Y35.5827 Z-1.6 I-3.4125 J0.0
G2 X65.7937 Y36.0158 Z-1.6258 I0.4044 J3.3884
G2 Y41.9265 Z-1.7591 I1.7063 J2.9553
G2 X70.9125 Y38.9711 Z-1.8924 I1.7063 J-2.9553
G2 X67.0956 Y35.5827 Z-2.0 I-3.4125 J0.0
G2 X65.7937 Y36.0158 Z-2.0258 I0.4044 J3.3884
G2 Y41.9265 Z-2.1591 I1.7063 J2.9553
G2 X70.9125 Y38.9711 Z-2.2924 I1.7063 J-2.9553
G2 X67.0956 Y35.5827 Z-2.4 I-3.4125 J0.0
G2 X65.7937 Y36.0158 Z-2.4258 I0.4044 J3.3884
G2 Y41.9265 Z-2.5591 I1.7063 J2.9553
G2 X70.9125 Y38.9711 Z-2.6924 I1.7063 J-2.9553
G2 X67.0956 Y35.5827 Z-2.8 I-3.4125 J0.0
G2 X65.7937 Y36.0158 Z-2.8258 I0.4044 J3.3884
G2 Y41.9265 Z-2.9591 I1.7063 J2.9553
G2 X70.9125 Y38.9711 Z-3.0924 I1.7063 J-2.9553
G2 X67.0956 Y35.5827 Z-3.2 I-3.4125 J0.0
G2 X65.7937 Y36.0158 Z-3.2258 I0.4044 J3.3884
G2 Y41.9265 Z-3.3591 I1.7063 J2.9553
G2 X70.9125 Y38.9711 Z-3.4924 I1.7063 J-2.9553
G2 X67.0956 Y35.5827 Z-3.6 I-3.4125 J0.0
G2 X65.7937 Y36.0158 Z-3.6258 I0.4044 J3.3884
G2 Y41.9265 Z-3.7591 I1.7063 J2.9553
G2 X70.9125 Y38.9711 Z-3.8924 I1.7063 J-2.9553
G2 X67.0956 Y35.5827 Z-4.0 I-3.4125 J0.0
G2 X65.7937 Y36.0158 Z-4.0258 I0.4044 J3.3884
G2 Y41.9265 Z-4.1591 I1.7063 J2.9553
G2 X70.9125 Y38.9711 Z-4.2924 I1.7063 J-2.9553
G2 X67.0956 Y35.5827 Z-4.4 I-3.4125 J0.0
G2 X65.7937 Y36.0158 Z-4.4258 I0.4044 J3.3884
G2 Y41.9265 Z-4.5591 I1.7063 J2.9553
G2 X70.9125 Y38.9711 Z-4.6924 I1.7063 J-2.9553
G2 X67.0956 Y35.5827 Z-4.8 I-3.4125 J0.0
G2 X65.7937 Y36.0158 Z-4.8258 I0.4044 J3.3884
G2 Y41.9265 Z-4.9591 I1.7063 J2.9553
G2 X70.9125 Y38.9711 Z-5.0924 I1.7063 J-2.9553
G2 X67.0956 Y35.5827 Z-5.2 I-3.4125 J0.0
G2 X65.7937 Y36.0158 Z-5.2258 I0.4044 J3.3884
G2 Y41.9265 Z-5.3591 I1.7063 J2.9553
G2 X70.9125 Y38.9711 Z-5.4924 I1.7063 J-2.9553
G2 X67.0956 Y35.5827 Z-5.6 I-3.4125 J0.0
G2 X65.7937 Y36.0158 Z-5.6258 I0.4044 J3.3884
G2 Y41.9265 Z-5.7591 I1.7063 J2.9553
G2 X70.9125 Y38.9711 Z-5.8924 I1.7063 J-2.9553
G2 X67.0956 Y35.5827 Z-6.0 I-3.4125 J0.0
G2 X65.7937 Y36.0158 Z-6.0258 I0.4044 J3.3884
G2 Y41.9265 Z-6.1591 I1.7063 J2.9553
G2 X70.9125 Y38.9711 Z-6.2924 I1.7063 J-2.9553
G2 X67.0956 Y35.5827 Z-6.4 I-3.4125 J0.0
G2 X65.7937 Y36.0158 Z-6.4258 I0.4044 J3.3884
G2 Y41.9265 Z-6.5591 I1.7063 J2.9553
G2 X70.9125 Y38.9711 Z-6.6924 I1.7063 J-2.9553
G2 X67.0956 Y35.5827 Z-6.8 I-3.4125 J0.0
G2 X65.7937 Y36.0158 Z-6.8258 I0.4044 J3.3884
G2 Y41.9265 Z-6.9591 I1.7063 J2.9553
G2 X70.9125 Y38.9711 Z-7.0924 I1.7063 J-2.9553
G2 X67.0956 Y35.5827 Z-7.2 I-3.4125 J0.0
G2 X65.7937 Y36.0158 Z-7.2258 I0.4044 J3.3884
G2 Y41.9265 Z-7.3591 I1.7063 J2.9553
G2 X70.9125 Y38.9711 Z-7.4924 I1.7063 J-2.9553
G2 X67.0956 Y35.5827 Z-7.6 I-3.4125 J0.0
G2 X65.7937 Y36.0158 Z-7.6258 I0.4044 J3.3884
G2 Y41.9265 Z-7.7591 I1.7063 J2.9553
G2 X70.9125 Y38.9711 Z-7.8924 I1.7063 J-2.9553
G2 X67.0956 Y35.5827 Z-8.0 I-3.4125 J0.0
G2 X65.7937 Y36.0158 Z-8.0258 I0.4044 J3.3884
G2 Y41.9265 Z-8.1591 I1.7063 J2.9553
G2 X70.9125 Y38.9711 Z-8.2924 I1.7063 J-2.9553
G2 X67.0956 Y35.5827 Z-8.4 I-3.4125 J0.0
G2 X65.7937 Y36.0158 Z-8.4258 I0.4044 J3.3884
G2 Y41.9265 Z-8.5591 I1.7063 J2.9553
G2 X70.9125 Y38.9711 Z-8.6924 I1.7063 J-2.9553
G2 X67.0956 Y35.5827 Z-8.8 I-3.4125 J0.0
G2 X65.7937 Y36.0158 Z-8.8258 I0.4044 J3.3884
G2 Y41.9265 Z-8.9591 I1.7063 J2.9553
G2 X70.9125 Y38.9711 Z-9.0924 I1.7063 J-2.9553
G2 X67.0956 Y35.5827 Z-9.2 I-3.4125 J0.0
G2 X65.7937 Y36.0158 Z-9.2258 I0.4044 J3.3884
G2 Y41.9265 Z-9.3591 I1.7063 J2.9553
G2 X70.9125 Y38.9711 Z-9.4924 I1.7063 J-2.9553
G2 X67.0956 Y35.5827 Z-9.6 I-3.4125 J0.0
G2 X65.7937 Y36.0158 Z-9.6258 I0.4044 J3.3884
G2 Y41.9265 Z-9.7591 I1.7063 J2.9553
G2 X70.9125 Y38.9711 Z-9.8924 I1.7063 J-2.9553
G2 X67.0956 Y35.5827 Z-10.0 I-3.4125 J0.0
G2 X65.7937 Y36.0158 Z-10.0258 I0.4044 J3.3884
G2 Y41.9265 Z-10.1591 I1.7063 J2.9553
G2 X70.9125 Y38.9711 Z-10.2924 I1.7063 J-2.9553
G2 X67.0956 Y35.5827 Z-10.4 I-3.4125 J0.0
G2 X65.7937 Y36.0158 Z-10.4258 I0.4044 J3.3884
G2 Y41.9265 Z-10.5591 I1.7063 J2.9553
G2 X70.9125 Y38.9711 Z-10.6924 I1.7063 J-2.9553
G2 X67.0956 Y35.5827 Z-10.8 I-3.4125 J0.0
G2 X65.7937 Y36.0158 Z-10.8258 I0.4044 J3.3884
G2 Y41.9265 Z-10.9591 I1.7063 J2.9553
G2 X70.9125 Y38.9711 Z-11.0924 I1.7063 J-2.9553
G2 X67.0956 Y35.5827 Z-11.2 I-3.4125 J0.0
G2 X65.7937 Y36.0158 Z-11.2258 I0.4044 J3.3884
G2 Y41.9265 Z-11.3591 I1.7063 J2.9553
G2 X70.9125 Y38.9711 Z-11.4924 I1.7063 J-2.9553
G2 X67.0956 Y35.5827 Z-11.6 I-3.4125 J0.0
G2 X65.7937 Y36.0158 Z-11.6258 I0.4044 J3.3884
G2 Y41.9265 Z-11.7591 I1.7063 J2.9553
G2 X70.9125 Y38.9711 Z-11.8924 I1.7063 J-2.9553
G2 X67.0956 Y35.5827 Z-12.0 I-3.4125 J0.0
G2 X65.7937 Y36.0158 Z-12.0258 I0.4044 J3.3884
G2 Y41.9265 Z-12.1591 I1.7063 J2.9553
G2 X70.9125 Y38.9711 Z-12.2924 I1.7063 J-2.9553
G2 X67.0956 Y35.5827 Z-12.4 I-3.4125 J0.0
G2 X65.7937 Y36.0158 Z-12.4258 I0.4044 J3.3884
G2 Y41.9265 Z-12.5591 I1.7063 J2.9553
G2 X70.9125 Y38.9711 Z-12.6924 I1.7063 J-2.9553
G2 X67.0956 Y35.5827 Z-12.8 I-3.4125 J0.0
G2 X65.7937 Y36.0158 Z-12.8258 I0.4044 J3.3884
G2 Y41.9265 Z-12.9591 I1.7063 J2.9553
G2 X70.9125 Y38.9711 Z-13.0924 I1.7063 J-2.9553
G2 X67.0956 Y35.5827 Z-13.2 I-3.4125 J0.0
G2 X65.7937 Y36.0158 Z-13.2258 I0.4044 J3.3884
G2 Y41.9265 Z-13.3591 I1.7063 J2.9553
G2 X70.9125 Y38.9711 Z-13.4924 I1.7063 J-2.9553
G2 X67.0956 Y35.5827 Z-13.6 I-3.4125 J0.0
G2 X65.7937 Y36.0158 Z-13.6258 I0.4044 J3.3884
G2 Y41.9265 Z-13.7591 I1.7063 J2.9553
G2 X70.9125 Y38.9711 Z-13.8924 I1.7063 J-2.9553
G2 X67.0956 Y35.5827 Z-14.0 I-3.4125 J0.0
G2 X65.7937 Y36.0158 Z-14.0258 I0.4044 J3.3884
G2 Y41.9265 Z-14.1591 I1.7063 J2.9553
G2 X70.9125 Y38.9711 Z-14.2924 I1.7063 J-2.9553
G2 X67.0956 Y35.5827 Z-14.4 I-3.4125 J0.0
G2 X65.7937 Y36.0158 Z-14.4258 I0.4044 J3.3884
G2 Y41.9265 Z-14.5591 I1.7063 J2.9553
G2 X70.9125 Y38.9711 Z-14.6924 I1.7063 J-2.9553
G2 X67.0956 Y35.5827 Z-14.8 I-3.4125 J0.0
G2 X65.7937 Y36.0158 Z-14.8258 I0.4044 J3.3884
G2 Y41.9265 Z-14.9591 I1.7063 J2.9553
G2 X70.9125 Y38.9711 Z-15.0924 I1.7063 J-2.9553
G2 X67.0956 Y35.5827 Z-15.2 I-3.4125 J0.0
G2 X65.7937 Y36.0158 Z-15.2258 I0.4044 J3.3884
G2 Y41.9265 Z-15.3591 I1.7063 J2.9553
G2 X70.9125 Y38.9711 Z-15.4924 I1.7063 J-2.9553
G2 X67.0956 Y35.5827 Z-15.6 I-3.4125 J0.0
G2 X65.7937 Y36.0158 Z-15.6258 I0.4044 J3.3884
G2 Y41.9265 Z-15.7591 I1.7063 J2.9553
G2 X70.9125 Y38.9711 Z-15.8924 I1.7063 J-2.9553
G2 X67.0956 Y35.5827 Z-16.0 I-3.4125 J0.0
G2 X65.7937 Y36.0158 Z-16.0258 I0.4044 J3.3884
G2 Y41.9265 Z-16.1591 I1.7063 J2.9553
G2 X70.9125 Y38.9711 Z-16.2924 I1.7063 J-2.9553
G2 X67.0956 Y35.5827 Z-16.4 I-3.4125 J0.0
G2 X65.7937 Y36.0158 Z-16.4258 I0.4044 J3.3884
G2 Y41.9265 Z-16.5591 I1.7063 J2.9553
G2 X70.9125 Y38.9711 Z-16.6924 I1.7063 J-2.9553
G2 X67.0956 Y35.5827 Z-16.8 I-3.4125 J0.0
G0 Z-16.7949
G2 X65.9125 Y35.9504 Z-16.8232 I0.4044 J3.3884
G2 X65.7937 Y36.0158 Z-16.8258 I1.5875 J3.0208
G2 X64.9125 Y36.7463 Z-16.8472 I1.7063 J2.9553
G2 Y41.196 I2.5875 J2.2249
G2 X65.7937 Y41.9265 Z-16.8317 I2.5875 J-2.2249
G2 X65.9125 Y41.9919 Z-16.8232 I1.7062 J-2.9553
G2 X69.0875 Z-17.0232 I1.5875 J-3.0208
G2 X70.0875 Y41.196 Z-17.0472 I-1.5875 J-3.0208
G2 X70.9125 Y38.9711 Z-17.0924 I-2.5875 J-2.2249
G2 X70.0875 Y36.7463 Z-17.1376 I-3.4125 J0.0
G2 X69.0875 Y35.9504 Z-17.05 I-2.5875 J2.2249
G2 X67.0956 Y35.5827 Z-17.2 I-1.5875 J3.0208
G0 Z-16.8167
G2 X65.9125 Y35.9504 Z-17.05 I0.4044 J3.3884
G2 X65.7937 Y36.0158 I1.5875 J3.0208
G2 X64.9125 Y36.7463 I1.7063 J2.9553
G2 Y41.196 I2.5875 J2.2249
G2 X65.7937 Y41.9265 I2.5875 J-2.2249
G2 X65.9125 Y41.9919 I1.7062 J-2.9553
G2 X69.0875 Z-16.4238 I1.5875 J-3.0208
G2 X70.0875 Y41.196 Z-16.2266 I-1.5875 J-3.0208
G2 X70.9125 Y38.9711 Z-16.0639 I-2.5875 J-2.2249
G2 X70.0875 Y36.7463 Z-17.5376 I-3.4125 J0.0
G2 X69.0875 Y35.9504 Z-17.05 I-2.5875 J2.2249
G2 X67.0956 Y35.5827 Z-16.8167 I-1.5875 J3.0208
G0 Z-16.3434
G2 X65.9125 Y35.9504 Z-17.05 I0.4044 J3.3884
G2 X65.7937 Y36.0158 I1.5875 J3.0208
G2 X64.9125 Y36.7463 I1.7063 J2.9553
G2 Y41.196 I2.5875 J2.2249
G2 X65.7937 Y41.9265 I2.5875 J-2.2249
G2 X65.9125 Y41.9919 I1.7062 J-2.9553
G2 X69.0875 Z-15.1538 I1.5875 J-3.0208
G2 X70.0875 Y41.196 Z-14.5566 I-1.5875 J-3.0208
G2 X70.9125 Y38.9711 Z-14.0639 I-2.5875 J-2.2249
G2 X70.0875 Y36.7463 Z-17.9376 I-3.4125 J0.0
G2 X69.0875 Y35.9504 Z-17.05 I-2.5875 J2.2249
G2 X67.0956 Y35.5827 Z-16.3434 I-1.5875 J3.0208
G0 Z-15.8702
G2 X65.9125 Y35.9504 Z-17.05 I0.4044 J3.3884
G2 X65.7937 Y36.0158 I1.5875 J3.0208
G2 X64.9125 Y36.7463 I1.7063 J2.9553
G2 Y41.196 I2.5875 J2.2249
G2 X65.7937 Y41.9265 I2.5875 J-2.2249
G2 X65.9125 Y41.9919 I1.7062 J-2.9553
G2 X69.0875 Z-13.8838 I1.5875 J-3.0208
G2 X70.0875 Y41.196 Z-12.8866 I-1.5875 J-3.0208
G2 X70.9125 Y38.9711 Z-12.0639 I-2.5875 J-2.2249
G2 X70.0875 Y36.7463 Z-18.3376 I-3.4125 J0.0
G2 X69.0875 Y35.9504 Z-17.05 I-2.5875 J2.2249
G2 X67.0956 Y35.5827 Z-15.8702 I-1.5875 J3.0208
G0 Z-15.397
G2 X65.9125 Y35.9504 Z-17.05 I0.4044 J3.3884
G2 X65.7937 Y36.0158 I1.5875 J3.0208
G2 X64.9125 Y36.7463 I1.7063 J2.9553
G2 Y41.196 I2.5875 J2.2249
G2 X65.7937 Y41.9265 I2.5875 J-2.2249
G2 X65.9125 Y41.9919 I1.7062 J-2.9553
G2 X69.0875 Z-12.6138 I1.5875 J-3.0208
G2 X70.0875 Y41.196 Z-11.2166 I-1.5875 J-3.0208
G2 X70.9125 Y38.9711 Z-10.0639 I-2.5875 J-2.2249
G2 X70.0875 Y36.7463 Z-18.7376 I-3.4125 J0.0
G2 X69.0875 Y35.9504 Z-17.05 I-2.5875 J2.2249
G2 X67.0956 Y35.5827 Z-15.397 I-1.5875 J3.0208
G0 Z-14.9447
G2 X65.9125 Y35.9504 Z-17.05 I0.4044 J3.3884
G2 X65.7937 Y36.0158 I1.5875 J3.0208
G2 X64.9125 Y36.7463 I1.7063 J2.9553
G2 Y41.196 I2.5875 J2.2249
G2 X65.7937 Y41.9265 I2.5875 J-2.2249
G2 X65.9125 Y41.9919 I1.7062 J-2.9553
G2 X69.0875 Z-11.4 I1.5875 J-3.0208
G2 X70.0875 Y41.196 Z-9.6205 I-1.5875 J-3.0208
G2 X70.9125 Y38.9711 Z-8.1524 I-2.5875 J-2.2249
G2 X70.0875 Y36.7463 Z-19.011 I-3.4125 J0.0
G2 X69.0875 Y35.9504 Z-17.05 I-2.5875 J2.2249
G2 X67.0956 Y35.5827 Z-14.9447 I-1.5875 J3.0208
G1 F300.0 Z-17.05
G2 F800.0 X65.9125 Y35.9504 I0.4044 J3.3884
G2 X65.7937 Y36.0158 Z-17.2875 I1.5875 J3.0208
G2 X64.9125 Y36.7463 Z-19.05 I1.7063 J2.9553
G2 Y41.196 I2.5875 J2.2249
G2 X65.7937 Y41.9265 Z-17.2875 I2.5875 J-2.2249
G2 X65.9125 Y41.9919 Z-17.05 I1.7062 J-2.9553
G2 X69.0875 I1.5875 J-3.0208
G2 X70.0875 Y41.196 Z-19.05 I-1.5875 J-3.0208
G2 X70.9125 Y38.9711 I-2.5875 J-2.2249
G2 X70.0875 Y36.7463 I-3.4125 J0.0
G2 X69.0875 Y35.9504 Z-17.05 I-2.5875 J2.2249
G2 X67.0956 Y35.5827 I-1.5875 J3.0208
G0 Z3.0
G0 X5.1227 Y71.2978
G0 Z0.5
G1 F300.0 Z0.0
G2 F800.0 X-2.9562 Y69.1296 Z-0.1001 I-5.1227 J2.9522
G2 Y79.3704 Z-0.2334 I2.9563 J5.1204
G2 X5.9125 Y74.25 Z-0.3667 I2.9563 J-5.1204
G2 X5.1227 Y71.2978 Z-0.4 I-5.9125 J0.0
G2 X-2.9562 Y69.1296 Z-0.5001 I-5.1227 J2.9522
G2 Y79.3704 Z-0.6334 I2.9563 J5.1204
G2 X5.9125 Y74.25 Z-0.7667 I2.9563 J-5.1204
G2 X5.1227 Y71.2978 Z-0.8 I-5.9125 J0.0
G2 X-2.9562 Y69.1296 Z-0.9001 I-5.1227 J2.9522
G2 Y79.3704 Z-1.0334 I2.9563 J5.1204
G2 X5.9125 Y74.25 Z-1.1667 I2.9563 J-5.1204
G2 X5.1227 Y71.2978 Z-1.2 I-5.9125 J0.0
G2 X-2.9562 Y69.1296 Z-1.3001 I-5.1227 J2.9522
G2 Y79.3704 Z-1.4334 I2.9563 J5.1204
G2 X5.9125 Y74.25 Z-1.5667 I2.9563 J-5.1204
G2 X5.1227 Y71.2978 Z-1.6 I-5.9125 J0.0
G2 X-2.9562 Y69.1296 Z-1.7001 I-5.1227 J2.9522
G2 Y79.3704 Z-1.8334 I2.9563 J5.1204
G2 X5.9125 Y74.25 Z-1.9667 I2.9563 J-5.1204
G2 X5.1227 Y71.2978 Z-2.0 I-5.9125 J0.0
G2 X-2.9562 Y69.1296 Z-2.1001 I-5.1227 J2.9522
G2 Y79.3704 Z-2.2334 I2.9563 J5.1204
G2 X5.9125 Y74.25 Z-2.3667 I2.9563 J-5.1204
G2 X5.1227 Y71.2978 Z-2.4 I-5.9125 J0.0
G2 X-2.9562 Y69.1296 Z-2.5001 I-5.1227 J2.9522
G2 Y79.3704 Z-2.6334 I2.9563 J5.1204
G2 X5.9125 Y74.25 Z-2.7667 I2.9563 J-5.1204
G2 X5.1227 Y71.2978 Z-2.8 I-5.9125 J0.0
G2 X-2.9562 Y69.1296 Z-2.9001 I-5.1227 J2.9522
G2 Y79.3704 Z-3.0334 I2.9563 J5.1204
G2 X5.9125 Y74.25 Z-3.1667 I2.9563 J-5.1204
G2 X5.1227 Y71.2978 Z-3.2 I-5.9125 J0.0
G2 X-2.9562 Y69.1296 Z-3.3001 I-5.1227 J2.9522
G2 Y79.3704 Z-3.4334 I2.9563 J5.1204
G2 X5.9125 Y74.25 Z-3.5667 I2.9563 J-5.1204
G2 X5.1227 Y71.2978 Z-3.6 I-5.9125 J0.0
G2 X-2.9562 Y69.1296 Z-3.7001 I-5.1227 J2.9522
G2 Y79.3704 Z-3.8334 I2.9563 J5.1204
G2 X5.9125 Y74.25 Z-3.9667 I2.9563 J-5.1204
G2 X5.1227 Y71.2978 Z-4.0 I-5.9125 J0.0
G2 X-2.9562 Y69.1296 Z-4.1001 I-5.1227 J2.9522
G2 Y79.3704 Z-4.2334 I2.9563 J5.1204
G2 X5.9125 Y74.25 Z-4.3667 I2.9563 J-5.1204
G2 X5.1227 Y71.2978 Z-4.4 I-5.9125 J0.0
G2 X-2.9562 Y69.1296 Z-4.5001 I-5.1227 J2.9522
G2 Y79.3704 Z-4.6334 I2.9563 J5.1204
G2 X5.9125 Y74.25 Z-4.7667 I2.9563 J-5.1204
G2 X5.1227 Y71.2978 Z-4.8 I-5.9125 J0.0
G2 X-2.9562 Y69.1296 Z-4.9001 I-5.1227 J2.9522
G2 Y79.3704 Z-5.0334 I2.9563 J5.1204
G2 X5.9125 Y74.25 Z-5.1667 I2.9563 J-5.1204
G2 X5.1227 Y71.2978 Z-5.2 I-5.9125 J0.0
G2 X-2.9562 Y69.1296 Z-5.3001 I-5.1227 J2.9522
G2 Y79.3704 Z-5.4334 I2.9563 J5.1204
G2 X5.9125 Y74.25 Z-5.5667 I2.9563 J-5.1204
G2 X5.1227 Y71.2978 Z-5.6 I-5.9125 J0.0
G2 X-2.9562 Y69.1296 Z-5.7001 I-5.1227 J2.9522
G2 Y79.3704 Z-5.8334 I2.9563 J5.1204
G2 X5.9125 Y74.25 Z-5.9667 I2.9563 J-5.1204
G2 X5.1227 Y71.2978 Z-6.0 I-5.9125 J0.0
G2 X-2.9562 Y69.1296 Z-6.1001 I-5.1227 J2.9522
G2 Y79.3704 Z-6.2334 I2.9563 J5.1204
G2 X5.9125 Y74.25 Z-6.3667 I2.9563 J-5.1204
G2 X5.1227 Y71.2978 Z-6.4 I-5.9125 J0.0
G2 X-2.9562 Y69.1296 Z-6.5001 I-5.1227 J2.9522
G2 Y79.3704 Z-6.6334 I2.9563 J5.1204
G2 X5.9125 Y74.25 Z-6.7667 I2.9563 J-5.1204
G2 X5.1227 Y71.2978 Z-6.8 I-5.9125 J0.0
G2 X-2.9562 Y69.1296 Z-6.9001 I-5.1227 J2.9522
G2 Y79.3704 Z-7.0334 I2.9563 J5.1204
G2 X5.9125 Y74.25 Z-7.1667 I2.9563 J-5.1204
G2 X5.1227 Y71.2978 Z-7.2 I-5.9125 J0.0
G2 X-2.9562 Y69.1296 Z-7.3001 I-5.1227 J2.9522
G2 Y79.3704 Z-7.4334 I2.9563 J5.1204
G2 X5.9125 Y74.25 Z-7.5667 I2.9563 J-5.1204
G2 X5.1227 Y71.2978 Z-7.6 I-5.9125 J0.0
G2 X-2.9562 Y69.1296 Z-7.7001 I-5.1227 J2.9522
G2 Y79.3704 Z-7.8334 I2.9563 J5.1204
G2 X5.9125 Y74.25 Z-7.9667 I2.9563 J-5.1204
G2 X5.1227 Y71.2978 Z-8.0 I-5.9125 J0.0
G2 X-2.9562 Y69.1296 Z-8.1001 I-5.1227 J2.9522
G2 Y79.3704 Z-8.2334 I2.9563 J5.1204
G2 X5.9125 Y74.25 Z-8.3667 I2.9563 J-5.1204
G2 X5.1227 Y71.2978 Z-8.4 I-5.9125 J0.0
G2 X-2.9562 Y69.1296 Z-8.5001 I-5.1227 J2.9522
G2 Y79.3704 Z-8.6334 I2.9563 J5.1204
G2 X5.9125 Y74.25 Z-8.7667 I2.9563 J-5.1204
G2 X5.1227 Y71.2978 Z-8.8 I-5.9125 J0.0
G2 X-2.9562 Y69.1296 Z-8.9001 I-5.1227 J2.9522
G2 Y79.3704 Z-9.0334 I2.9563 J5.1204
G2 X5.9125 Y74.25 Z-9.1667 I2.9563 J-5.1204
G2 X5.1227 Y71.2978 Z-9.2 I-5.9125 J0.0
G2 X-2.9562 Y69.1296 Z-9.3001 I-5.1227 J2.9522
G2 Y79.3704 Z-9.4334 I2.9563 J5.1204
G2 X5.9125 Y74.25 Z-9.5667 I2.9563 J-5.1204
G2 X5.1227 Y71.2978 Z-9.6 I-5.9125 J0.0
G2 X-2.9562 Y69.1296 Z-9.7001 I-5.1227 J2.9522
G2 Y79.3704 Z-9.8334 I2.9563 J5.1204
G2 X5.9125 Y74.25 Z-9.9667 I2.9563 J-5.1204
G2 X5.1227 Y71.2978 Z-10.0 I-5.9125 J0.0
G2 X-2.9562 Y69.1296 Z-10.1001 I-5.1227 J2.9522
G2 Y79.3704 Z-10.2334 I2.9563 J5.1204
G2 X5.9125 Y74.25 Z-10.3667 I2.9563 J-5.1204
G2 X5.1227 Y71.2978 Z-10.4 I-5.9125 J0.0
G2 X-2.9562 Y69.1296 Z-10.5001 I-5.1227 J2.9522
G2 Y79.3704 Z-10.6334 I2.9563 J5.1204
G2 X5.9125 Y74.25 Z-10.7667 I2.9563 J-5.1204
G2 X5.1227 Y71.2978 Z-10.8 I-5.9125 J0.0
G2 X-2.9562 Y69.1296 Z-10.9001 I-5.1227 J2.9522
G2 Y79.3704 Z-11.0334 I2.9563 J5.1204
G2 X5.9125 Y74.25 Z-11.1667 I2.9563 J-5.1204
G2 X5.1227 Y71.2978 Z-11.2 I-5.9125 J0.0
G2 X-2.9562 Y69.1296 Z-11.3001 I-5.1227 J2.9522
G2 Y79.3704 Z-11.4334 I2.9563 J5.1204
G2 X5.9125 Y74.25 Z-11.5667 I2.9563 J-5.1204
G2 X5.1227 Y71.2978 Z-11.6 I-5.9125 J0.0
G2 X-2.9562 Y69.1296 Z-11.7001 I-5.1227 J2.9522
G2 Y79.3704 Z-11.8334 I2.9563 J5.1204
G2 X5.9125 Y74.25 Z-11.9667 I2.9563 J-5.1204
G2 X5.1227 Y71.2978 Z-12.0 I-5.9125 J0.0
G2 X-2.9562 Y69.1296 Z-12.1001 I-5.1227 J2.9522
G2 Y79.3704 Z-12.2334 I2.9563 J5.1204
G2 X5.9125 Y74.25 Z-12.3667 I2.9563 J-5.1204
G2 X5.1227 Y71.2978 Z-12.4 I-5.9125 J0.0
G2 X-2.9562 Y69.1296 Z-12.5001 I-5.1227 J2.9522
G2 Y79.3704 Z-12.6334 I2.9563 J5.1204
G2 X5.9125 Y74.25 Z-12.7667 I2.9563 J-5.1204
G2 X5.1227 Y71.2978 Z-12.8 I-5.9125 J0.0
G2 X-2.9562 Y69.1296 Z-12.9001 I-5.1227 J2.9522
G2 Y79.3704 Z-13.0334 I2.9563 J5.1204
G2 X5.9125 Y74.25 Z-13.1667 I2.9563 J-5.1204
G2 X5.1227 Y71.2978 Z-13.2 I-5.9125 J0.0
G2 X-2.9562 Y69.1296 Z-13.3001 I-5.1227 J2.9522
G2 Y79.3704 Z-13.4334 I2.9563 J5.1204
G2 X5.9125 Y74.25 Z-13.5667 I2.9563 J-5.1204
G2 X5.1227 Y71.2978 Z-13.6 I-5.9125 J0.0
G2 X-2.9562 Y69.1296 Z-13.7001 I-5.1227 J2.9522
G2 Y79.3704 Z-13.8334 I2.9563 J5.1204
G2 X5.9125 Y74.25 Z-13.9667 I2.9563 J-5.1204
G2 X5.1227 Y71.2978 Z-14.0 I-5.9125 J0.0
G2 X-2.9562 Y69.1296 Z-14.1001 I-5.1227 J2.9522
G2 Y79.3704 Z-14.2334 I2.9563 J5.1204
G2 X5.9125 Y74.25 Z-14.3667 I2.9563 J-5.1204
G2 X5.1227 Y71.2978 Z-14.4 I-5.9125 J0.0
G2 X-2.9562 Y69.1296 Z-14.5001 I-5.1227 J2.9522
G2 Y79.3704 Z-14.6334 I2.9563 J5.1204
G2 X5.9125 Y74.25 Z-14.7667 I2.9563 J-5.1204
G2 X5.1227 Y71.2978 Z-14.8 I-5.9125 J0.0
G2 X-2.9562 Y69.1296 Z-14.9001 I-5.1227 J2.9522
G2 Y79.3704 Z-15.0334 I2.9563 J5.1204
G2 X5.9125 Y74.25 Z-15.1667 I2.9563 J-5.1204
G2 X5.1227 Y71.2978 Z-15.2 I-5.9125 J0.0
G2 X-2.9562 Y69.1296 Z-15.3001 I-5.1227 J2.9522
G2 Y79.3704 Z-15.4334 I2.9563 J5.1204
G2 X5.9125 Y74.25 Z-15.5667 I2.9563 J-5.1204
G2 X5.1227 Y71.2978 Z-15.6 I-5.9125 J0.0
G2 X-2.9562 Y69.1296 Z-15.7001 I-5.1227 J2.9522
G2 Y79.3704 Z-15.8334 I2.9563 J5.1204
G2 X5.9125 Y74.25 Z-15.9667 I2.9563 J-5.1204
G2 X5.1227 Y71.2978 Z-16.0 I-5.9125 J0.0
G2 X-2.9562 Y69.1296 Z-16.1001 I-5.1227 J2.9522
G2 Y79.3704 Z-16.2334 I2.9563 J5.1204
G2 X5.9125 Y74.25 Z-16.3667 I2.9563 J-5.1204
G2 X5.1227 Y71.2978 Z-16.4 I-5.9125 J0.0
G2 X-2.9562 Y69.1296 Z-16.5001 I-5.1227 J2.9522
G2 Y79.3704 Z-16.6334 I2.9563 J5.1204
G2 X5.9125 Y74.25 Z-16.7667 I2.9563 J-5.1204
G2 X5.1227 Y71.2978 Z-16.8 I-5.9125 J0.0
G2 X2.5875 Y68.9338 Z-16.8379 I-5.1227 J2.9522
G2 X1.5875 Y68.5546 Z-16.8494 I-2.5875 J5.3162
G2 X-1.5875 Z-16.884 I-1.5875 J5.6954
G2 X-2.5875 Y68.9338 Z-16.8956 I1.5875 J5.6954
G2 X-2.9562 Y69.1296 Z-16.9001 I2.5875 J5.3162
G2 Y79.3704 Z-17.0334 I2.9563 J5.1204
G2 X-2.5875 Y79.5662 Z-17.0379 I2.9562 J-5.1204
G2 X-1.5875 Y79.9454 Z-17.0494 I2.5875 J-5.3162
G2 X1.5875 Z-17.05 I1.5875 J-5.6954
G2 X2.5875 Y79.5662 Z-17.0956 I-1.5875 J-5.6954
G2 X5.9125 Y74.25 Z-17.1667 I-2.5875 J-5.3162
G2 X5.1227 Y71.2978 Z-17.2 I-5.9125 J0.0
G2 X2.5875 Y68.9338 Z-17.2379 I-5.1227 J2.9522
G2 X1.5875 Y68.5546 Z-17.05 I-2.5875 J5.3162
G2 X-1.5875 I-1.5875 J5.6954
G2 X-2.5875 Y68.9338 Z-17.2956 I1.5875 J5.6954
G2 X-2.9562 Y69.1296 Z-17.3001 I2.5875 J5.3162
G2 Y79.3704 Z-17.4334 I2.9563 J5.1204
G2 X-2.5875 Y79.5662 Z-17.4379 I2.9562 J-5.1204
G2 X-1.5875 Y79.9454 Z-17.05 I2.5875 J-5.3162
G2 X1.5875 I1.5875 J-5.6954
G2 X2.5875 Y79.5662 Z-17.4956 I-1.5875 J-5.6954
G2 X5.9125 Y74.25 Z-17.5667 I-2.5875 J-5.3162
G2 X5.1227 Y71.2978 Z-17.6 I-5.9125 J0.0
G2 X2.5875 Y68.9338 Z-17.6379 I-5.1227 J2.9522
G2 X1.5875 Y68.5546 Z-17.05 I-2.5875 J5.3162
G2 X-1.5875 I-1.5875 J5.6954
G2 X-2.5875 Y68.9338 Z-17.6956 I1.5875 J5.6954
G2 X-2.9562 Y69.1296 Z-17.7001 I2.5875 J5.3162
G2 Y79.3704 Z-17.8334 I2.9563 J5.1204
G2 X-2.5875 Y79.5662 Z-17.8379 I2.9562 J-5.1204
G2 X-1.5875 Y79.9454 Z-17.05 I2.5875 J-5.3162
G2 X1.5875 I1.5875 J-5.6954
G2 X2.5875 Y79.5662 Z-17.8956 I-1.5875 J-5.6954
G2 X5.9125 Y74.25 Z-17.9667 I-2.5875 J-5.3162
G2 X5.1227 Y71.2978 Z-18.0 I-5.9125 J0.0
G2 X2.5875 Y68.9338 Z-18.0379 I-5.1227 J2.9522
G2 X1.5875 Y68.5546 Z-17.05 I-2.5875 J5.3162
G2 X-1.5875 I-1.5875 J5.6954
G2 X-2.5875 Y68.9338 Z-18.0956 I1.5875 J5.6954
G2 X-2.9562 Y69.1296 Z-18.1001 I2.5875 J5.3162
G2 Y79.3704 Z-18.2334 I2.9563 J5.1204
G2 X-2.5875 Y79.5662 Z-18.2379 I2.9562 J-5.1204
G2 X-1.5875 Y79.9454 Z-17.05 I2.5875 J-5.3162
G2 X1.5875 I1.5875 J-5.6954
G2 X2.5875 Y79.5662 Z-18.2956 I-1.5875 J-5.6954
G2 X5.9125 Y74.25 Z-18.3667 I-2.5875 J-5.3162
G2 X5.1227 Y71.2978 Z-18.4 I-5.9125 J0.0
G2 X2.5875 Y68.9338 Z-18.4379 I-5.1227 J2.9522
G2 X1.5875 Y68.5546 Z-17.05 I-2.5875 J5.3162
G2 X-1.5875 I-1.5875 J5.6954
( gcode truncated )
( please support CamBam development by registering )
( www.cambam.info/shop )
( Middle circle )
S1000
( Outside )
S1000
G0 Z3.0
M5
M30
